X: 268
P: Longways for as many as will
M: 6/4
L: 1/4
K: Gm
d |\
g>a^f g2d | gab a2a |\
bfd gdB | B>AG G2d |\
g>a^f g2d | gab a2a |\
b=e(f/d/) ^c>=BA | d=e^c d2 |] f |\
=e>d=e f2f | dfa b2b |
bfd g2f | =e>d=e f2f |\
fga bfd | gde d>cB |\
c>de dgf | gdB B>AG | G3- G2 |]

